-- default params: freq sustain pan begin end speed accelerate
d1  $ s "tides" <| note "a [~ g] [c b] [g gs]"
    # octave "<3 4 5>"
    # sustain "{1 2 1}%8"
    # accelerate 0.05
    # verb 0.3 0.9 0.5 0.1
d1  $ s "[[bd sd], linnhats*8]"
    # verb 0.9 0.9 0.1 0.2
d1  $ s "[[bd sd], [linnhats*8]]"
  # clouds 0.8 0.5 0.05 0.1
  # cloudsblend 1 0.2 0.2 0.8
hush
d1 $ s "tides"
d1 $ s "plaits"
d1 $ s "braids"
hush

hush
