d1
  $ outside 2 (someCyclesBy 0.25 (slow 2))
  $ off "s" (slow 2 . (|+ n "[5, 12]"))
  $ struct "t(<3 5>,8) t(<5 3>, 8)"
  $ n (fast 1.5 $ scale "minor" "<1 8 -5 8 2 -1>")
  |- n "[0, 12, 24]"
  # legato (timeLoop 8 $ range 1 2 $ slow 2 perlin)
  # s "plaits" # timbre 0.5 # morph 0.2 # engine 2 # harm 0.5
  # verb 0.3 0.6 0.2 0.5
  # gain 0.85
  hush
