d1
   $ juxBy 0.3 (rev . rotR (1/16))
   $ (off (1/16) (+ note "<7 12 5 19>"))
   $ (off (3/16) (+ note "<5 19 7 12>"))
   $ struct "t(<3 5>,8)"
   $ note "<0 1 3 5 7>"
   # s "bass3:8"
   # legato "<1.5 1 1.5 2 1>"
   # fadeTime 0.05
