d1 $ drumM "rolandtr909" [
  off 2.125 ((# s "bd") . (# pan 0.5) . (# n 4) . (# hpf 1 ). (# lpf 200)) $
  off 1.25 ((# s "cp") . (# pan 0.3) . (# legato 3)) $
  echoWith 2 (1/4) ((|* gain 0.75) . (# hpf (slow 8 $ rangex 200 2000 perlin)))
  $ iter 4 $ fast 2 $ s "sd(<3 5 3 6 3 5 3 1 3 1 3 7>,8)" |* gain "1 0.95 0.95 0.9" # n 3 # pan 0.7
]

:t echoWith
