d1
  $ (|* gain 0.7)
  $ jux (rev . slow 2)
  $ timeLoop 8
  $ rotL 48
  $ (# (delayt "<0.25 0.25 0.25 0.25>"))
  $ (# (delayfb (slow 4 $ range 0.5 0.6 sine)))
  $ (# (delay 0.7))
  $ (# (legato (range 0.5 0.9 perlin)))
  $ ghost
  $ fast 4
  $ randslice 4
  $ n "1 2 3 7"
  # s "rave"
  # gain 1
  # lock 1
